src/assets/images/homepage/home/partner_logo_11.svg

<svg width="90" height="89" viewBox="0 0 90 89" fill="none" xmlns="http://www.w3.org/2000/svg">
<circle cx="44.9512" cy="44.5" r="44.5" fill="#FFE804"/>
<path fill-rule="evenodd" clip-rule="evenodd" d="M45.212 14.2402C47.17 14.2402 48.95 17.2662 48.95 20.8262V21.0042C50.018 19.7582 51.264 19.0462 52.332 19.4022C53.4 19.7582 53.756 21.1822 53.578 22.9622C53.578 23.8522 53.4 24.7422 53.044 25.6322C52.866 26.1662 52.51 26.7002 52.332 27.0562C66.572 30.6162 76.718 42.8982 76.54 64.0802H67.818C67.996 46.1022 57.85 37.2022 44.678 37.0242C30.26 36.6682 22.25 46.6362 21.36 64.0802H12.46C13.528 42.7202 22.428 29.9042 38.092 27.2342C37.914 26.8782 37.38 26.1662 37.202 25.6322C35.956 22.9622 36.134 20.2922 37.558 19.5802C38.626 19.0462 40.406 19.9362 41.474 21.5382V20.8262C41.652 17.2662 43.254 14.2402 45.212 14.2402ZM37.202 47.3482C38.27 47.3482 39.16 48.4162 39.16 49.4842V54.8242C39.16 56.0702 38.27 56.9602 37.202 56.9602C36.134 56.9602 35.244 55.8922 35.244 54.8242V49.4842C35.422 48.2382 36.134 47.3482 37.202 47.3482ZM52.51 47.3482C53.578 47.3482 54.468 48.4162 54.468 49.4842V54.8242C54.468 56.0702 53.578 56.9602 52.51 56.9602C51.442 56.9602 50.552 55.8922 50.552 54.8242V49.4842C50.73 48.2382 51.442 47.3482 52.51 47.3482Z" fill="black"/>
</svg>

<svg fill="none" height="89" viewBox="0 0 90 89" width="90" xmlns="http://www.w3.org/2000/svg"><circle cx="44.9512" cy="44.5" fill="#ffe804" r="44.5"/><path clip-rule="evenodd" d="m45.212 14.2402c1.958 0 3.738 3.026 3.738 6.586v.178c1.068-1.246 2.314-1.958 3.382-1.602s1.424 1.78 1.246 3.56c0 .89-.178 1.78-.534 2.67-.178.534-.534 1.068-.712 1.424 14.24 3.56 24.386 15.842 24.208 37.024h-8.722c.178-17.978-9.968-26.878-23.14-27.056-14.418-.356-22.428 9.612-23.318 27.056h-8.9c1.068-21.36 9.968-34.176 25.632-36.846-.178-.356-.712-1.068-.89-1.602-1.246-2.67-1.068-5.34.356-6.052 1.068-.534 2.848.356 3.916 1.958v-.712c.178-3.56 1.78-6.586 3.738-6.586zm-8.01 33.108c1.068 0 1.958 1.068 1.958 2.136v5.34c0 1.246-.89 2.136-1.958 2.136s-1.958-1.068-1.958-2.136v-5.34c.178-1.246.89-2.136 1.958-2.136zm15.308 0c1.068 0 1.958 1.068 1.958 2.136v5.34c0 1.246-.89 2.136-1.958 2.136s-1.958-1.068-1.958-2.136v-5.34c.178-1.246.89-2.136 1.958-2.136z" fill="#000" fill-rule="evenodd"/></svg>
